assets/img/braze_icons/file-attachment-05.svg

<svg fill="none" height="24" viewBox="0 0 24 24" width="24" xmlns="http://www.w3.org/2000/svg"><path clip-rule="evenodd" d="m15.2413 1h-6.4826c-.80496-.000012-1.46933-.000022-2.01052.04419-.5621.04593-1.07881.14449-1.56414.39179-.75265.38349-1.36457.99541-1.74806 1.74806-.2473.48533-.34586 1.00204-.39179 1.56414-.04421.54119-.0442 1.20554-.04419 2.01051v10.48261c-.00001.805-.00002 1.4693.04419 2.0105.04593.5621.14449 1.0788.39179 1.5642.38349.7526.99541 1.3645 1.74806 1.748.48533.2473 1.00204.3459 1.56414.3918.54119.0442 1.20554.0442 2.0105.0442h6.48262c.805 0 1.4693 0 2.0105-.0442.5621-.0459 1.0788-.1445 1.5642-.3918.7526-.3835 1.3645-.9954 1.748-1.748.2473-.4854.3459-1.0021.3918-1.5642.0442-.5412.0442-1.2055.0442-2.0105v-10.48262c0-.80496 0-1.46931-.0442-2.0105-.0459-.5621-.1445-1.07881-.3918-1.56414-.3835-.75265-.9954-1.36457-1.748-1.74806-.4854-.2473-1.0021-.34586-1.5642-.39179-.5412-.044212-1.2055-.044202-2.0105-.04419zm-2.2413 7.5c0-.27614.2239-.5.5-.5s.5.22386.5.5v5.5c0 1.1046-.8954 2-2 2s-2-.8954-2-2v-4c0-.55228-.44771-1-1-1-.55228 0-1 .44772-1 1v4c0 2.2091 1.79086 4 4 4 2.2091 0 4-1.7909 4-4v-5.5c0-1.38071-1.1193-2.5-2.5-2.5s-2.5 1.11929-2.5 2.5v5.5c0 .5523.4477 1 1 1s1-.4477 1-1z" fill="#801ed7" fill-rule="evenodd"/></svg>

<svg width="24" height="24" viewBox="0 0 24 24" fill="none" xmlns="http://www.w3.org/2000/svg">
<path fill-rule="evenodd" clip-rule="evenodd" d="M15.2413 1H8.7587C7.95374 0.999988 7.28937 0.999978 6.74818 1.04419C6.18608 1.09012 5.66937 1.18868 5.18404 1.43598C4.43139 1.81947 3.81947 2.43139 3.43598 3.18404C3.18868 3.66937 3.09012 4.18608 3.04419 4.74818C2.99998 5.28937 2.99999 5.95372 3 6.75869V17.2413C2.99999 18.0463 2.99998 18.7106 3.04419 19.2518C3.09012 19.8139 3.18868 20.3306 3.43598 20.816C3.81947 21.5686 4.43139 22.1805 5.18404 22.564C5.66937 22.8113 6.18608 22.9099 6.74818 22.9558C7.28937 23 7.95372 23 8.75868 23H15.2413C16.0463 23 16.7106 23 17.2518 22.9558C17.8139 22.9099 18.3306 22.8113 18.816 22.564C19.5686 22.1805 20.1805 21.5686 20.564 20.816C20.8113 20.3306 20.9099 19.8139 20.9558 19.2518C21 18.7106 21 18.0463 21 17.2413V6.75868C21 5.95372 21 5.28937 20.9558 4.74818C20.9099 4.18608 20.8113 3.66937 20.564 3.18404C20.1805 2.43139 19.5686 1.81947 18.816 1.43598C18.3306 1.18868 17.8139 1.09012 17.2518 1.04419C16.7106 0.999978 16.0463 0.999988 15.2413 1ZM13 8.5C13 8.22386 13.2239 8 13.5 8C13.7761 8 14 8.22386 14 8.5V14C14 15.1046 13.1046 16 12 16C10.8954 16 10 15.1046 10 14V10C10 9.44772 9.55229 9 9 9C8.44772 9 8 9.44772 8 10V14C8 16.2091 9.79086 18 12 18C14.2091 18 16 16.2091 16 14V8.5C16 7.11929 14.8807 6 13.5 6C12.1193 6 11 7.11929 11 8.5V14C11 14.5523 11.4477 15 12 15C12.5523 15 13 14.5523 13 14V8.5Z" fill="#801ED7"/>
</svg>
